X:1
T:Boca Raton, 11.8.11.8 D
T:Boca Raton, 11.8.11.8 D
T:William J. Henry, 1907
T:Public Domain Courtesy of the Cyber Hymnal™
C:William J. Henry, 1907
Z:Public Domain
Z:Courtesy of the Cyber Hymnal™
%%score ( 1 2 ) ( 3 4 )
L:1/8
Q:1/4=90
M:6/8
K:G
V:1 treble 
V:2 treble 
V:3 bass 
V:4 bass 
V:1
 [B,D] | [B,G][CA][DB] [DB][CA][B,G] | [CA][CG][CE] [B,D]2 [B,D] | [B,G][CA][DB] [DB][DA][^CG] | %4
 [DA]3- [DA]2 D | [DG][DA][GB] [GB][DA][DG] | [EA][EG][CE] [B,D]2 [B,D] | %7
 [DG][EA][DB] [DA][DG][DA] | [DG]3- [DG]2 [DB]/[DB]/ | [Gd]>[Gd][Gd] [Ge][Gd][GB] | %10
 d3- [Gd]2 [DB] | [Gd]>[Gd][Gd] [Ge][Gd][GB] | A3- [FA]2 D | [DG][DA][GB] [GB][DA][DG] | %14
 [EA][EG][CE] [B,D]2 [B,D] | [DG][EA][DB] [DA][DG][DA] | [DG]3- [DG]2 |] %17
V:2
 x | x6 | x6 | x6 | x5 D | x6 | x6 | x6 | x6 | x6 | G2 F x3 | x6 | F2 F D x2 | x6 | x6 | x6 | x5 |] %17
V:3
 [G,,G,] | [G,,G,][G,,G,][G,,G,] [G,,G,][G,,D,][G,,D,] | [C,E,][C,E,][C,G,] [G,,G,]2 G, | %3
 G,G,G, G,[F,A,][E,A,] | [D,F,]3- [D,F,]2 [G,B,] | [G,B,][G,C][G,D] [G,D][G,C][G,B,] | %6
 [C,C][C,C][C,G,] [G,,G,]2 [G,,G,] | [B,,G,][C,G,][D,G,] [D,C][D,B,][D,C] | %8
 [G,,B,]3- [G,,B,]2 G,/G,/ | [G,B,]>[G,B,][G,B,] [G,C][G,B,]G, | [G,B,]2 [A,C] [B,D]2 G, | %11
 [G,B,]>[G,B,][G,B,] [G,C][G,B,][G,D] | [D,D]2 [D,D] [D,D]2 [G,B,] | %13
 [G,B,][G,C][G,D] [G,D][G,C][G,B,] | [C,C][C,C][C,G,] [G,,G,]2 [G,,G,] | %15
 [B,,G,][C,G,][D,G,] [D,C][D,B,][D,C] | [G,,B,]3- [G,,B,]2 |] %17
V:4
 x | x6 | x5 G, | G,G,G, G, x2 | x6 | x6 | x6 | x6 | x5 G,/G,/ | x5 G, | x5 G, | x6 | x6 | x6 | %14
 x6 | x6 | x5 |] %17

